X:7
T:Mrs. Kenny's
Z: id:dc-waltz-7
M:3/4
L:1/8
K:D Major
A2|f2 fe dc|d4 FG|A2 G3B,|A,2 C2 E2|!
[1 g2 f2 e2|d2 c2 B2|A2 AB AG|F2 G2:|!
[2 g2 f2 e2|d2 c2 B2|A2 ^GA Bc|d4|]!
cB|A2 f2 f2|A2 f2 f2|A2 f2 f2|a^g ba fd|!
A2 e2 e2|A2 e2 e2|A2 e2 e2|a^g ba fd|!
A2 f2 f2|A2 f2 f2|A2 f2 f2|a^g ba fd|!
A2 e2 e2|A2 e2 e2|ab ag fe|d4|]!
FA|d4 ed|c4 dc|B2 G3 B|A2 F2 F2|!
d4 ed|c4 B2|A2 G2 E2|D4:|!

